assets/img/empatizarHover.svg

<svg width="213" height="198" viewBox="0 0 213 198" fill="none" xmlns="http://www.w3.org/2000/svg">
<rect width="213" height="198" fill="#301F36"/>
<path d="M58.64 39.0267H65.38V41.5467H58.64V39.0267ZM58.88 44.7867H66.5V47.3867H55.66V33.3867H66.24V35.9867H58.88V44.7867ZM82.638 36.4667C83.4913 36.4667 84.2446 36.6401 84.898 36.9867C85.5646 37.3201 86.0846 37.8401 86.458 38.5467C86.8446 39.2401 87.038 40.1334 87.038 41.2267V47.3867H83.918V41.7067C83.918 40.8401 83.738 40.2001 83.378 39.7867C83.018 39.3734 82.5113 39.1667 81.858 39.1667C81.4046 39.1667 80.998 39.2734 80.638 39.4867C80.278 39.6867 79.998 39.9934 79.798 40.4067C79.598 40.8201 79.498 41.3467 79.498 41.9867V47.3867H76.378V41.7067C76.378 40.8401 76.198 40.2001 75.838 39.7867C75.4913 39.3734 74.9913 39.1667 74.338 39.1667C73.8846 39.1667 73.478 39.2734 73.118 39.4867C72.758 39.6867 72.478 39.9934 72.278 40.4067C72.078 40.8201 71.978 41.3467 71.978 41.9867V47.3867H68.858V36.6267H71.838V39.5667L71.278 38.7067C71.6513 37.9734 72.178 37.4201 72.858 37.0467C73.5513 36.6601 74.338 36.4667 75.218 36.4667C76.2046 36.4667 77.0646 36.7201 77.798 37.2267C78.5446 37.7201 79.038 38.4801 79.278 39.5067L78.178 39.2067C78.538 38.3667 79.1113 37.7001 79.898 37.2067C80.698 36.7134 81.6113 36.4667 82.638 36.4667ZM96.1945 47.5467C95.2879 47.5467 94.4945 47.3467 93.8145 46.9467C93.1345 46.5467 92.6012 45.9401 92.2145 45.1267C91.8412 44.3001 91.6545 43.2601 91.6545 42.0067C91.6545 40.7401 91.8345 39.7001 92.1945 38.8867C92.5545 38.0734 93.0745 37.4667 93.7545 37.0667C94.4345 36.6667 95.2479 36.4667 96.1945 36.4667C97.2079 36.4667 98.1145 36.7001 98.9145 37.1667C99.7279 37.6201 100.368 38.2601 100.835 39.0867C101.315 39.9134 101.555 40.8867 101.555 42.0067C101.555 43.1401 101.315 44.1201 100.835 44.9467C100.368 45.7734 99.7279 46.4134 98.9145 46.8667C98.1145 47.3201 97.2079 47.5467 96.1945 47.5467ZM89.8345 51.2667V36.6267H92.8145V38.8267L92.7545 42.0267L92.9545 45.2067V51.2667H89.8345ZM95.6545 44.9867C96.1745 44.9867 96.6345 44.8667 97.0345 44.6267C97.4479 44.3867 97.7745 44.0467 98.0145 43.6067C98.2679 43.1534 98.3945 42.6201 98.3945 42.0067C98.3945 41.3801 98.2679 40.8467 98.0145 40.4067C97.7745 39.9667 97.4479 39.6267 97.0345 39.3867C96.6345 39.1467 96.1745 39.0267 95.6545 39.0267C95.1345 39.0267 94.6679 39.1467 94.2545 39.3867C93.8412 39.6267 93.5145 39.9667 93.2745 40.4067C93.0345 40.8467 92.9145 41.3801 92.9145 42.0067C92.9145 42.6201 93.0345 43.1534 93.2745 43.6067C93.5145 44.0467 93.8412 44.3867 94.2545 44.6267C94.6679 44.8667 95.1345 44.9867 95.6545 44.9867ZM110.067 47.3867V45.2867L109.867 44.8267V41.0667C109.867 40.4001 109.661 39.8801 109.247 39.5067C108.847 39.1334 108.227 38.9467 107.387 38.9467C106.814 38.9467 106.247 39.0401 105.687 39.2267C105.141 39.4001 104.674 39.6401 104.287 39.9467L103.167 37.7667C103.754 37.3534 104.461 37.0334 105.287 36.8067C106.114 36.5801 106.954 36.4667 107.807 36.4667C109.447 36.4667 110.721 36.8534 111.627 37.6267C112.534 38.4001 112.987 39.6067 112.987 41.2467V47.3867H110.067ZM106.787 47.5467C105.947 47.5467 105.227 47.4067 104.627 47.1267C104.027 46.8334 103.567 46.4401 103.247 45.9467C102.927 45.4534 102.767 44.9001 102.767 44.2867C102.767 43.6467 102.921 43.0867 103.227 42.6067C103.547 42.1267 104.047 41.7534 104.727 41.4867C105.407 41.2067 106.294 41.0667 107.387 41.0667H110.247V42.8867H107.727C106.994 42.8867 106.487 43.0067 106.207 43.2467C105.941 43.4867 105.807 43.7867 105.807 44.1467C105.807 44.5467 105.961 44.8667 106.267 45.1067C106.587 45.3334 107.021 45.4467 107.567 45.4467C108.087 45.4467 108.554 45.3267 108.967 45.0867C109.381 44.8334 109.681 44.4667 109.867 43.9867L110.347 45.4267C110.121 46.1201 109.707 46.6467 109.107 47.0067C108.507 47.3667 107.734 47.5467 106.787 47.5467ZM120.211 47.5467C118.944 47.5467 117.958 47.2267 117.251 46.5867C116.544 45.9334 116.191 44.9667 116.191 43.6867V34.2467H119.311V43.6467C119.311 44.1001 119.431 44.4534 119.671 44.7067C119.911 44.9467 120.238 45.0667 120.651 45.0667C121.144 45.0667 121.564 44.9334 121.911 44.6667L122.751 46.8667C122.431 47.0934 122.044 47.2667 121.591 47.3867C121.151 47.4934 120.691 47.5467 120.211 47.5467ZM114.531 39.2667V36.8667H121.991V39.2667H114.531ZM124.503 47.3867V36.6267H127.623V47.3867H124.503ZM126.063 35.1267C125.489 35.1267 125.023 34.9601 124.663 34.6267C124.303 34.2934 124.123 33.8801 124.123 33.3867C124.123 32.8934 124.303 32.4801 124.663 32.1467C125.023 31.8134 125.489 31.6467 126.063 31.6467C126.636 31.6467 127.103 31.8067 127.463 32.1267C127.823 32.4334 128.003 32.8334 128.003 33.3267C128.003 33.8467 127.823 34.2801 127.463 34.6267C127.116 34.9601 126.649 35.1267 126.063 35.1267ZM129.778 47.3867V45.5067L136.138 37.9867L136.678 39.0267H129.918V36.6267H139.198V38.5067L132.838 46.0267L132.278 44.9867H139.378V47.3867H129.778ZM147.978 47.3867V45.2867L147.778 44.8267V41.0667C147.778 40.4001 147.571 39.8801 147.158 39.5067C146.758 39.1334 146.138 38.9467 145.298 38.9467C144.724 38.9467 144.158 39.0401 143.598 39.2267C143.051 39.4001 142.584 39.6401 142.198 39.9467L141.078 37.7667C141.664 37.3534 142.371 37.0334 143.198 36.8067C144.024 36.5801 144.864 36.4667 145.718 36.4667C147.358 36.4667 148.631 36.8534 149.538 37.6267C150.444 38.4001 150.898 39.6067 150.898 41.2467V47.3867H147.978ZM144.698 47.5467C143.858 47.5467 143.138 47.4067 142.538 47.1267C141.938 46.8334 141.478 46.4401 141.158 45.9467C140.838 45.4534 140.678 44.9001 140.678 44.2867C140.678 43.6467 140.831 43.0867 141.138 42.6067C141.458 42.1267 141.958 41.7534 142.638 41.4867C143.318 41.2067 144.204 41.0667 145.298 41.0667H148.158V42.8867H145.638C144.904 42.8867 144.398 43.0067 144.118 43.2467C143.851 43.4867 143.718 43.7867 143.718 44.1467C143.718 44.5467 143.871 44.8667 144.178 45.1067C144.498 45.3334 144.931 45.4467 145.478 45.4467C145.998 45.4467 146.464 45.3267 146.878 45.0867C147.291 44.8334 147.591 44.4667 147.778 43.9867L148.258 45.4267C148.031 46.1201 147.618 46.6467 147.018 47.0067C146.418 47.3667 145.644 47.5467 144.698 47.5467ZM153.721 47.3867V36.6267H156.701V39.6667L156.281 38.7867C156.601 38.0267 157.115 37.4534 157.821 37.0667C158.528 36.6667 159.388 36.4667 160.401 36.4667V39.3467C160.268 39.3334 160.148 39.3267 160.041 39.3267C159.935 39.3134 159.821 39.3067 159.701 39.3067C158.848 39.3067 158.155 39.5534 157.621 40.0467C157.101 40.5267 156.841 41.2801 156.841 42.3067V47.3867H153.721Z" fill="white"/>
<path d="M77.8627 113.821C78.9473 113.798 79.8173 114.739 80.4489 116.657C81.6169 115.287 82.7014 114.834 83.7144 115.287C87.552 127.081 91.0797 139.066 92.9866 151.36C102.068 146.667 110.279 138.887 120.779 137.708C122.078 138.947 121.053 142.223 119.313 142.58C116.084 143.319 113.104 144.844 110.208 146.393C105.357 148.99 97.4796 155.411 92.9508 156.924C87.1349 158.878 88.5054 153.398 88.0406 150.193C87.3375 145.451 86.1933 140.769 85.0373 136.135C83.9528 131.775 82.0817 123.662 80.3417 119.862C80.0795 119.302 80.58 118.98 79.3286 119.182C69.9611 133.907 67.0532 150.646 67.3988 167.956C65.6349 171.208 63.0249 170.422 62.727 166.729C61.273 149.252 67.1366 127.653 77.8627 113.81V113.821Z" fill="white"/>
<path d="M95.2985 72.5063C97.8608 72.1608 108.206 72.3514 108.384 76.0207C108.611 80.6311 101.15 76.7712 98.564 76.7474C74.7162 76.533 83.0349 125.104 108.944 108.079C119.23 101.325 122.984 89.042 112.734 80.1784C111.328 78.9633 108.79 78.9275 109.648 76.1279C111.006 71.6604 117.788 78.0936 119.313 79.9402C134.604 98.4058 105.202 126.497 88.1 112.607C75.2048 102.123 76.8138 75.0319 95.2985 72.5063Z" fill="white"/>
<path d="M147.867 98.2036C141.718 95.6304 136.462 100.193 133.053 104.887C128.536 111.118 125.557 120.136 130.539 126.986C130.753 127.939 131.969 129.119 132.97 128.94C139.811 131.037 145.031 125.974 148.177 120.493C151.467 114.739 156.115 101.659 147.867 98.2156V98.2036ZM143.315 119.517C141.718 121.887 137.022 126.772 134.078 123.925C132.91 122.817 132.374 119.576 132.493 117.968C132.851 113.06 139.978 99.6094 146.044 102.481C151.049 104.839 145.519 116.264 143.327 119.517H143.315Z" fill="#DAE1E1"/>
<path d="M130.526 126.985C131.611 126.878 132.862 127.914 132.97 128.939C133.148 130.821 128.929 136.421 127.606 138.208C126.987 139.542 123.292 138.684 123.221 137.231C124.627 135.098 128.059 127.247 130.538 126.997L130.526 126.985Z" fill="white"/>
<path d="M123.223 137.219C123.605 137.231 127.418 138.088 127.609 138.196C127.692 138.243 127.979 138.934 128.098 139.173C127.776 141.555 126.012 144.939 123.712 145.999C123.557 145.975 123.378 146.035 123.223 145.999C122.139 147.488 118.516 145.963 119.326 144.045C119.41 143.616 119.207 142.925 119.326 142.58C119.91 140.912 120.434 139.47 120.792 137.707C121.567 137.624 122.735 137.195 123.235 137.219H123.223Z" fill="white"/>
<path d="M123.222 146C121.72 148.013 119.039 155.518 115.749 153.35C113.211 151.682 117.966 145.69 119.313 144.046C119.98 145.154 121.959 145.69 123.21 146H123.222Z" fill="white"/>
<path d="M83.715 115.275L80.0681 118.194L77.8633 113.809C78.3638 113.166 78.5426 111.725 79.8297 111.141C83.2978 109.556 83.0476 113.19 83.715 115.275Z" fill="white"/>
<path d="M109.421 94.3905C113.533 93.1515 113.318 99.6323 110.279 100.157C105.917 100.919 107.467 94.9742 109.421 94.3905Z" fill="white"/>
<path d="M128.097 139.174C129.67 142.355 127.787 141.783 126.905 143.093C126.142 144.237 126.953 146.167 124.795 146.405C124.009 146.489 123.842 146.024 123.711 146C123.83 144.154 125.88 143.367 126.357 142.593C126.667 142.093 126.095 139.865 128.097 139.174Z" fill="white"/>
</svg>

<svg xmlns="http://www.w3.org/2000/svg" width="213" height="198" fill="none"><path fill="#301F36" d="M0 0h213v198H0z"/><path fill="#fff" d="M58.64 39.027h6.74v2.52h-6.74zm.24 5.76h7.62v2.6H55.66v-14h10.58v2.6h-7.36zm23.758-8.32q1.28 0 2.26.52 1 .5 1.56 1.56.58 1.04.58 2.68v6.16h-3.12v-5.68q0-1.3-.54-1.92t-1.52-.62q-.68 0-1.22.32-.54.3-.84.92t-.3 1.58v5.4h-3.12v-5.68q0-1.3-.54-1.92-.52-.62-1.5-.62-.68 0-1.22.32-.54.3-.84.92t-.3 1.58v5.4h-3.12v-10.76h2.98v2.94l-.56-.86q.56-1.1 1.58-1.66 1.04-.58 2.36-.58 1.48 0 2.58.76 1.12.74 1.48 2.28l-1.1-.3q.54-1.26 1.72-2 1.2-.74 2.74-.74m13.557 11.08q-1.36 0-2.38-.6t-1.6-1.82q-.56-1.24-.56-3.12 0-1.9.54-3.12t1.56-1.82 2.44-.6q1.52 0 2.72.7a4.93 4.93 0 0 1 1.92 1.92q.72 1.24.72 2.92 0 1.7-.72 2.94a4.93 4.93 0 0 1-1.92 1.92q-1.2.68-2.72.68m-6.36 3.72v-14.64h2.98v2.2l-.06 3.2.2 3.18v6.06zm5.82-6.28q.78 0 1.38-.36.62-.36.98-1.02.38-.68.38-1.6 0-.94-.38-1.6a2.6 2.6 0 0 0-.98-1.02q-.6-.36-1.38-.36t-1.4.36-.98 1.02-.36 1.6q0 .92.36 1.6.36.66.98 1.02t1.4.36m14.412 2.4v-2.1l-.2-.46v-3.76q0-1-.62-1.56-.6-.56-1.86-.56-.86 0-1.7.28a4.4 4.4 0 0 0-1.4.72l-1.12-2.18q.88-.621 2.12-.96a9.5 9.5 0 0 1 2.52-.34q2.46 0 3.82 1.16t1.36 3.62v6.14zm-3.28.16q-1.26 0-2.16-.42-.9-.44-1.38-1.18a3 3 0 0 1-.48-1.66q0-.96.46-1.68.48-.72 1.5-1.12 1.02-.42 2.66-.42h2.86v1.82h-2.52q-1.1 0-1.52.36-.4.36-.4.9 0 .6.46.96.48.34 1.3.34.78 0 1.4-.36.621-.38.9-1.1l.48 1.44q-.34 1.04-1.24 1.58t-2.32.54m13.424 0q-1.9 0-2.96-.96-1.06-.98-1.06-2.9v-9.44h3.12v9.4q0 .68.36 1.06.36.36.98.36.74 0 1.26-.4l.84 2.2q-.48.34-1.16.52-.66.16-1.38.16m-5.68-8.28v-2.4h7.46v2.4zm9.972 8.12v-10.76h3.12v10.76zm1.56-12.26q-.86 0-1.4-.5a1.62 1.62 0 0 1-.54-1.24q0-.74.54-1.24t1.4-.5 1.4.48q.54.459.54 1.2 0 .78-.54 1.3-.52.5-1.4.5m3.715 12.26v-1.88l6.36-7.52.54 1.04h-6.76v-2.4h9.28v1.88l-6.36 7.52-.56-1.04h7.1v2.4zm18.2 0v-2.1l-.2-.46v-3.76q0-1-.62-1.56-.6-.56-1.86-.56-.86 0-1.7.28a4.3 4.3 0 0 0-1.4.72l-1.12-2.18q.88-.621 2.12-.96a9.5 9.5 0 0 1 2.52-.34q2.46 0 3.82 1.16t1.36 3.62v6.14zm-3.28.16q-1.26 0-2.16-.42-.9-.44-1.38-1.18a3 3 0 0 1-.48-1.66q0-.96.46-1.68.48-.72 1.5-1.12 1.02-.42 2.66-.42h2.86v1.82h-2.52q-1.1 0-1.52.36-.4.36-.4.9 0 .6.46.96.48.34 1.3.34.78 0 1.4-.36.62-.38.9-1.1l.48 1.44q-.34 1.04-1.24 1.58t-2.32.54m9.023-.16v-10.76h2.98v3.04l-.42-.88q.48-1.14 1.54-1.72 1.06-.6 2.58-.6v2.88a4 4 0 0 0-.36-.02 3 3 0 0 0-.34-.02q-1.28 0-2.08.74-.78.72-.78 2.26v5.08zM77.863 113.821c1.084-.023 1.954.918 2.586 2.836 1.168-1.37 2.252-1.823 3.265-1.37 3.838 11.794 7.366 23.779 9.273 36.073 9.081-4.693 17.292-12.473 27.792-13.652 1.299 1.239.274 4.515-1.466 4.872-3.229.739-6.209 2.264-9.105 3.813-4.851 2.597-12.728 9.018-17.257 10.531-5.816 1.954-4.446-3.526-4.91-6.731-.703-4.742-1.848-9.424-3.004-14.058-1.084-4.36-2.955-12.473-4.695-16.273-.263-.56.238-.882-1.013-.68-9.368 14.725-12.276 31.464-11.93 48.774-1.764 3.252-4.374 2.466-4.672-1.227-1.454-17.477 4.41-39.076 15.136-52.919zM95.299 72.506c2.562-.345 12.907-.155 13.085 3.515.227 4.61-7.234.75-9.82.726-23.848-.214-15.53 48.357 10.38 31.332 10.286-6.754 14.04-19.037 3.79-27.9-1.406-1.216-3.944-1.252-3.086-4.051 1.358-4.468 8.14 1.966 9.665 3.812 15.291 18.466-14.111 46.557-31.213 32.667-12.895-10.484-11.286-37.575 7.199-40.1"/><path fill="#DAE1E1" d="M147.867 98.204c-6.149-2.574-11.405 1.989-14.814 6.683-4.517 6.231-7.496 15.249-2.514 22.099.214.953 1.43 2.133 2.431 1.954 6.841 2.097 12.061-2.966 15.207-8.447 3.29-5.754 7.938-18.834-.31-22.277zm-4.552 21.313c-1.597 2.37-6.293 7.255-9.237 4.408-1.168-1.108-1.704-4.349-1.585-5.957.358-4.908 7.485-18.359 13.551-15.487 5.005 2.358-.525 13.783-2.717 17.036z"/><path fill="#fff" d="M130.526 126.985c1.085-.107 2.336.929 2.444 1.954.178 1.882-4.041 7.482-5.364 9.269-.619 1.334-4.314.476-4.385-.977 1.406-2.133 4.838-9.984 7.317-10.234z"/><path fill="#fff" d="M123.223 137.219c.382.012 4.195.869 4.386.977.083.047.37.738.489.977-.322 2.382-2.086 5.766-4.386 6.826-.155-.024-.334.036-.489 0-1.084 1.489-4.707-.036-3.897-1.954.084-.429-.119-1.12 0-1.465.584-1.668 1.108-3.11 1.466-4.873.775-.083 1.943-.512 2.443-.488z"/><path fill="#fff" d="M123.222 146c-1.502 2.013-4.183 9.518-7.473 7.35-2.538-1.668 2.217-7.66 3.564-9.304.667 1.108 2.646 1.644 3.897 1.954zM83.715 115.275l-3.647 2.919-2.205-4.385c.5-.643.68-2.084 1.967-2.668 3.468-1.585 3.218 2.049 3.885 4.134M109.421 94.39c4.112-1.239 3.897 5.242.858 5.767-4.362.762-2.812-5.183-.858-5.766M128.097 139.174c1.573 3.181-.31 2.609-1.192 3.919-.763 1.144.048 3.074-2.11 3.312-.786.084-.953-.381-1.084-.405.119-1.846 2.169-2.633 2.646-3.407.31-.5-.262-2.728 1.74-3.419"/></svg>
